!!!XEN: My love has departed
!!!AGN: Love song
!!!COM: Anonymous
!!!CNT: Native American -- Ojibway
!!!TXO: Ojibway
!!!MLC: White Earth reservation, northern Minnesota, U.S.A.
!!!MRD: 1907-1909///
!!!MPN: Mrs. Mary English
**kern
*MM132
*Ifemale
*k[]
*clefG2
*M2/4
=1
*M2/4
8.a
16a
4b
=2
*M3/4
2.a
=3
*M2/4
4a
8.g
16e
=4
*M3/4
4a
2a
=5
*M2/4
8.e
16e
4f#
=6
2e
=7
4e
8.d
16d
=8
*M3/4
4e
2d
=9
*M2/4
4e
4a
=10
*M3/4
4a
2g
=11
*M2/4
4g
8.e
16d
=12
*M3/4
4e
2d
=13
8A
8d
4d
4c
=14
*M2/4
4.c
8A
=15
*M3/4
4c
2A
=16
*M3/4
2a
4b
=17
2.a
=18
*M2/4
4a
8.b
16e
=19
*M3/4
4a
2a
=20
*M2/4
8.e
16e
4f#
=21
2e
=22
4e
8.Xd
16d
=23
*M3/4
4e
2d
=24
*M2/4
4r
4e
=25
*M3/4
4.a
8a
4g
=26
4.e
8f#
4e
=27
*M3/4
4.d
8e
4d
=28
*M2/4
2c
=29
*M3/4
2.A
=30
*M2/4
8.a
16a
4b
=31
*M3/4
2.a
=32
*M2/4
4a
8.g
16e
=33
*M3/4
4a
2a
=34
*M2/4
8.e
16e
4f#
=35
2e
=36
*M2/4
4e
8.Xd
16d
=37
*M3/4
4e
2d
=38
*M2/4
4e
4a
=39
*M3/4
4a
4.g
8g
=40
*M2/4
8.e
16f#
4e
=41
*M2/4
2d
=42
*M3/4
8A
8d
4d
4c
=43
*M2/4
4c
8A
8A
=44
*M3/4
4c
2A
==
*-
!!!OCL: Frances Densmore
!!!YOR: Chippewa [i.e., Ojibway] Music, Bulletin 45 of the Bureau of American Ethnology, Smitsonian Institution
!!!ONM: 135
!!!PPG: 150
!!!PUB: published
!!!PPR: Government Printing Office
!!!PPP: Washington, D.C.
!!!PDT: 1909///
!!!EST: missing clef changes, text, drum tempo, and drum part
!!!YEC: Copyright 1998 Paul von Hippel
!!!YEM: Rights to all derivate electronic formats reserved.
!!!EFL: 13/42
